X: 27
T: No_125_Moccasin_Game_Song.krn
%%abc-version 2.0
%%abcx-abcm2ps-target-version 5.9.1 (29 Sep 2008)
%%abc-creator hum2abc beta
%%abcx-conversion-date 2020/08/10 18:54:56
%%gracespace 0 6 6
%%humdrum-veritas 3492248440
%%humdrum-veritas-data 1110503259
%%linebreak <none>
%%barnumbers 0
L: 1/8
M: 3/4
%%staves {1 2}
V: 1 clef=bass
V: 2 clef=bass
K: A
[V:1] [K:clef=bass][M:3/4]C,>C (3CCG, G,/G,3/ | 
[V:2] [K:clef=bass][M:3/4]!accent!G,, z/ G,,/ !accent!G,, z/ G,,/ !accent!G,, z/ G,,/ | 
[V:1] C>G, (3G,F,C, C,/C,3/ | 
[V:2] !accent!G,, z/ G,,/z4 | 
[V:1] F,>G, (3G,G,G, F,/F,3/ | 
[V:2] z6 | 
[V:1] G,>A, (3G,F,C, (3C,C,A,, | 
[V:2] z6 | 
[V:1] C,>C, (3C,C,A,, A,,/A,,3/ | 
[V:2] z6 | 
[V:1] D,>F, (3F,F,C, (3C,C,A,, | 
[V:2] z6 | 
[V:1] C,>C, (3C,C,C, C,/C,3/ | 
[V:2] z6 | 
[V:1] C,6 |]  
[V:2] z6 |]  


